images/class_icons/mirefoot.svg

<svg height="400" viewBox="0 0 400 400" width="400" xmlns="http://www.w3.org/2000/svg"><path d="m180.463.742c-1.154.628-5.433 5.956-8.206 10.219-2.835 4.359-4.299 7.981-5.43 13.436-.861 4.148-1.477 5.768-2.105 5.527-.479-.184-4.666-3.025-7.365-4.998-4.316-3.156-6.141-4.28-7.168-4.415-6.312-.829-10.312 19.543-6.018 30.65.519 1.343 1.481 3.997 2.137 5.896 2.175 6.3 4.676 10.589 9.983 17.117 9.566 11.767 15.897 20.888 16.199 23.336.098.791.515 6.236.927 12.1.412 5.863.805 11.268.874 12.012l.125 1.351-1.579-1.694c-.869-.932-6.131-7.351-11.694-14.265-5.563-6.913-10.939-13.516-11.947-14.672-2.269-2.603-7.601-9.682-9.759-12.956-1.763-2.675-6.777-7.723-12.867-12.958-6.498-5.584-10.656-7.912-17.561-9.83-6.959-1.934-9.797-3.06-13.727-5.445-6.499-3.945-11.187-4.997-22.309-5.007-10.164-.008-18.424 1.364-20.231 3.36-1.885 2.083 7.331 10.83 16.027 15.211 2.567 1.293 4.958 3.178 10.66 8.403 5.515 5.052 7.566 6.689 11.112 8.871 2.359 1.451 9.623 4.991 12.981 6.325 10.729 4.261 44.025 21.441 55.609 28.691 13.554 8.484 15.046 10.53 15.939 21.85.501 6.358.444 7.488-.37 7.291-4.134-1.002-6.828-.811-6.837.484-.024 3.558-2.569.969-5.691-5.791-7.264-15.728-22.15-34.594-27.886-35.343-2.262-.295-4.783 3.799-6.336 10.286-.471 1.972-1.5 6.299-2.285 9.615l-1.428 6.03-1.833.37c-22.188 4.478-30.835 8.129-43.725 18.466-7.173 5.752-13.667 13.152-13.454 15.332.264 2.701 12.015 3.075 24.114.767 2.478-.472 7.674-1.279 11.546-1.791 11.714-1.552 16.492-2.872 24.924-6.89 2.734-1.304 5.254-2.452 5.599-2.554.547-.16 1.197.687 5.105 6.65 8.452 12.899 9.746 14.522 19.212 24.107 8.979 9.092 12.198 12.745 14.048 15.942 1.263 2.182.985 2.306-2.847 1.274-9.16-2.465-24.684-.1-33.595 5.118-10.494 6.144-20.406 28.566-13.687 30.959 1.666.593 5.19-.49 11.155-3.428 5.929-2.921 7.592-3.637 10.642-4.583 3.07-.952 7.543-2.799 12.718-5.251 5.691-2.697 6.73-2.926 7.841-1.728 1.068 1.153.954 1.292-2.198 2.685-4.84 2.138-6.469 3.801-6.847 6.989-.87 7.349 6.376 10.847 14.693 7.092 1.302-.588 2.441-.996 2.531-.906.553.553 2.208 10.154 2.264 13.129.047 2.549-.269 2.958-3.131 4.051-4.951 1.892-7.027 5.495-5.484 9.518.332.864-.639 1.442-3.36 2-8.001 1.639-10.399 6.483-6.066 12.256l.956 1.273-2.124 2.091c-6.244 6.145-5.258 11.361 2.472 13.083 2.382.531 3.753 1.02 3.753 1.339 0 .473-1.174 1.234-2.73 1.769-5.729 1.971-8.023 4.677-7.708 9.088.308 4.295 2.322 5.519 9.087 5.519 5.164 0 5.014-.052 5.749 1.99 1.316 3.66 5.927 5.578 10.472 4.354.988-.266 2.367-.647 3.064-.846s1.339-.289 1.428-.2c.23.229.68 9.216 1.058 21.129.578 18.189 2.28 57.785 2.493 57.997.145.145 4.836-.714 6.119-1.121 1.297-.41 1.249.606 1.446-30.45.167-26.234.348-31.882 1.049-32.727.293-.352.236-.648-.288-1.495-1.214-1.965-2.603-12.312-3.307-24.637-.793-13.877-.944-14.922-2.234-15.51-1.079-.492-1.743-2.4-1.908-5.486-.181-3.363-.069-3.474 3.52-3.489 11.681-.047 15.564-5.783 9.027-13.331-2.164-2.498-2.147-2.372-.369-2.828 4.323-1.108 8.65-5.371 8.581-8.455-.03-1.323-1.731-5.621-2.601-6.572-2.938-3.21-10.367-2.669-16.268 1.183-1.251.817-2.41 1.485-2.574 1.485-.191 0-.284-2.186-.256-6.019l.044-6.02-1.214-1.121c-1.241-1.146-1.686-2.149-1.509-3.401.1-.706.102-.706 5.655-.858 8.152-.223 9.793-1.236 9.731-6.004-.084-6.44-4.709-9.988-14.31-10.977-2.248-.231-2.628-.64-2.628-2.821 0-2.204.618-3.964 1.975-5.619 1.179-1.439 1.133-1.905-.191-1.905-1.344 0-1.143-.327 2.426-3.95l3.309-3.358.765 1.027c.42.564 1.658 2.513 2.751 4.329 8.156 13.566 17.457 23.962 30.407 33.989 3.242 2.511 14.235 9.705 14.828 9.705.063 0 1.228.617 2.591 1.371 9.96 5.509 23.113 9.991 26.845 9.147 2.139-.484 2.435-1.065 2.414-4.746-.049-8.489-4.564-20.032-12.302-31.448-1.344-1.982-3.486-5.139-4.76-7.017-1.275-1.878-2.258-3.475-2.184-3.548.381-.381 11.478 3.105 20.822 6.542 13.492 4.962 34.526 9.7 42.289 9.526 6.395-.144 6.373-.328-.904-7.605-7.594-7.594-12.293-10.672-25.603-16.774-2.685-1.231-6.131-3.017-7.658-3.969-9.771-6.093-9.733-6.08-23.646-7.911-14.527-1.912-25.523-3.023-30.01-3.033-6.452-.015-10.501-1.599-6.852-2.68 4.62-1.368 16.142-13.495 16.142-16.99 0-1.333-5.463-2.27-13.514-2.32-11.053-.067-15.117 1.112-23.603 6.85-5.142 3.476-7.924 4.414-9.442 3.184-1.931-1.563 5.787-11.702 20.729-27.227 3.179-3.304 6.857-7.358 8.172-9.01 1.316-1.651 3.123-3.913 4.016-5.025 1.787-2.225 3.999-4.001 5.366-4.308 1.086-.245 1.892.615 5.791 6.18 3.079 4.395 5.073 6.793 9.234 11.111 1.671 1.735 3.965 4.505 5.098 6.157 7.234 10.551 16.215 19.09 27.673 26.312 6.294 3.967 12.685 6.041 14.002 4.543 3.154-3.588 3.153-9.747-.004-23.687-3.054-13.481-4.979-18.778-7.572-20.832-1.224-.969-4.229-4.695-5.433-6.736-1.139-1.93.528-1.737 11.736 1.358 7.714 2.131 14.771 3.724 18.471 4.171 4.825.583 9.993 2.362 16.817 5.789 11.185 5.617 17.913 7.685 25.379 7.801 3.702.058 3.712.036 1.809-3.859-9.868-20.204-29.467-36.418-44.067-36.457-5.84-.015-2.551-1.184 16.785-5.968 24.642-6.096 27.981-7.764 21.916-10.945-18.69-9.803-35.244-11.767-65.065-7.717-10.374 1.409-19.888 4.069-31.666 8.853-3.046 1.238-5.594 2.195-5.662 2.128-.067-.068.505-1.946 1.272-4.174 2.663-7.732 3.327-14.525 2.007-20.538-1.099-5.004-1.769-5.687-4.681-4.77-4.075 1.285-2.849.123 3.294-3.122 7.189-3.797 14.57-9.106 21.338-15.349 5.011-4.621 7.401-6.691 11.663-10.097 8.661-6.92 13.588-14.502 18.098-27.846 1.98-5.856 1.816-6.522-1.849-7.514-6.16-1.666-12.659-.849-23.627 2.973-23.124 8.057-29.083 12.777-42.886 33.971-3.335 5.12-6.39 9.715-6.789 10.21-3.683 4.568-4.646 6.209-8.196 13.964-1.474 3.221-3.762 8.095-5.084 10.831-2.775 5.746-5.212 10.832-7.302 15.241-3.44 7.254-5.66 10.264-7.571 10.264-.604 0-1.098-.055-1.098-.122 0-.605 2.824-9.424 6.289-19.636 6.155-18.146 6.809-20.751 7.682-30.615 1.903-21.492-.79-35.053-9.618-48.425-4.919-7.452-8.404-10.267-10.977-8.868m15.333 107.982c0 1.021-2.695 4.489-3.489 4.489-.814 0 .072-1.756 1.782-3.528 1.236-1.282 1.707-1.547 1.707-.961m-14.374 9.044c-.919 3.32-1.496 4.786-1.517 3.854-.039-1.755 1.521-6.662 1.974-6.209.084.084-.121 1.144-.457 2.355m9.269.138c0 1.27-5.79 13.926-6.371 13.926-.939 0 1.153-7.143 3.277-11.184 1.33-2.532 3.094-4.095 3.094-2.742m-7.197 25.172c-.49 3.474-1.493 8.781-1.806 9.559-.468 1.163-.348-3.996.156-6.733 1.176-6.38 2.463-8.584 1.65-2.826m-13.128 11.01c2.915 2.402 3.643 6.83 2.329 14.147-.814 4.531-1.224 10.018-1.224 16.393 0 2.894-.071 5.19-.159 5.103-.087-.088-.425-2.171-.751-4.63-1.866-14.083-4.508-30.825-5.296-33.557-.199-.689 3.29 1.051 5.101 2.544m9.071 20.086-.441 1.652.154-2.102c.263-3.596.562-4.899.654-2.853.04.908-.125 2.395-.367 3.303m1.758 13.629c1.062 2.239.47 5.5-1.932 10.644-1.428 3.057-1.929 3.039-1.638-.058.407-4.34 2.278-12.109 2.834-11.766.137.085.468.616.736 1.18m-5.909 101.332c.09.67.068 1.599-.049 2.063l-.213.844-.575-.709c-.655-.807-.787-3.013-.215-3.585.508-.508.86-.043 1.052 1.387" fill-rule="evenodd"/></svg>

<svg id="svg" xmlns="http://www.w3.org/2000/svg" xmlns:xlink="http://www.w3.org/1999/xlink" width="400" height="400" viewBox="0, 0, 400,400"><g id="svgg"><path id="path0" d="M180.463 0.742 C 179.309 1.370,175.030 6.698,172.257 10.961 C 169.422 15.320,167.958 18.942,166.827 24.397 C 165.966 28.545,165.350 30.165,164.722 29.924 C 164.243 29.740,160.056 26.899,157.357 24.926 C 153.041 21.770,151.216 20.646,150.189 20.511 C 143.877 19.682,139.877 40.054,144.171 51.161 C 144.690 52.504,145.652 55.158,146.308 57.057 C 148.483 63.357,150.984 67.646,156.291 74.174 C 165.857 85.941,172.188 95.062,172.490 97.510 C 172.588 98.301,173.005 103.746,173.417 109.610 C 173.829 115.473,174.222 120.878,174.291 121.622 L 174.416 122.973 172.837 121.279 C 171.968 120.347,166.706 113.928,161.143 107.014 C 155.580 100.101,150.204 93.498,149.196 92.342 C 146.927 89.739,141.595 82.660,139.437 79.386 C 137.674 76.711,132.660 71.663,126.570 66.428 C 120.072 60.844,115.914 58.516,109.009 56.598 C 102.050 54.664,99.212 53.538,95.282 51.153 C 88.783 47.208,84.095 46.156,72.973 46.146 C 62.809 46.138,54.549 47.510,52.742 49.506 C 50.857 51.589,60.073 60.336,68.769 64.717 C 71.336 66.010,73.727 67.895,79.429 73.120 C 84.944 78.172,86.995 79.809,90.541 81.991 C 92.900 83.442,100.164 86.982,103.522 88.316 C 114.251 92.577,147.547 109.757,159.131 117.007 C 172.685 125.491,174.177 127.537,175.070 138.857 C 175.571 145.215,175.514 146.345,174.700 146.148 C 170.566 145.146,167.872 145.337,167.863 146.632 C 167.839 150.190,165.294 147.601,162.172 140.841 C 154.908 125.113,140.022 106.247,134.286 105.498 C 132.024 105.203,129.503 109.297,127.950 115.784 C 127.479 117.756,126.450 122.083,125.665 125.399 L 124.237 131.429 122.404 131.799 C 100.216 136.277,91.569 139.928,78.679 150.265 C 71.506 156.017,65.012 163.417,65.225 165.597 C 65.489 168.298,77.240 168.672,89.339 166.364 C 91.817 165.892,97.013 165.085,100.885 164.573 C 112.599 163.021,117.377 161.701,125.809 157.683 C 128.543 156.379,131.063 155.231,131.408 155.129 C 131.955 154.969,132.605 155.816,136.513 161.779 C 144.965 174.678,146.259 176.301,155.725 185.886 C 164.704 194.978,167.923 198.631,169.773 201.828 C 171.036 204.010,170.758 204.134,166.926 203.102 C 157.766 200.637,142.242 203.002,133.331 208.220 C 122.837 214.364,112.925 236.786,119.644 239.179 C 121.310 239.772,124.834 238.689,130.799 235.751 C 136.728 232.830,138.391 232.114,141.441 231.168 C 144.511 230.216,148.984 228.369,154.159 225.917 C 159.850 223.220,160.889 222.991,162.000 224.189 C 163.068 225.342,162.954 225.481,159.802 226.874 C 154.962 229.012,153.333 230.675,152.955 233.863 C 152.085 241.212,159.331 244.710,167.648 240.955 C 168.950 240.367,170.089 239.959,170.179 240.049 C 170.732 240.602,172.387 250.203,172.443 253.178 C 172.490 255.727,172.174 256.136,169.312 257.229 C 164.361 259.121,162.285 262.724,163.828 266.747 C 164.160 267.611,163.189 268.189,160.468 268.747 C 152.467 270.386,150.069 275.230,154.402 281.003 L 155.358 282.276 153.234 284.367 C 146.990 290.512,147.976 295.728,155.706 297.450 C 158.088 297.981,159.459 298.470,159.459 298.789 C 159.459 299.262,158.285 300.023,156.729 300.558 C 151.000 302.529,148.706 305.235,149.021 309.646 C 149.329 313.941,151.343 315.165,158.108 315.165 C 163.272 315.165,163.122 315.113,163.857 317.155 C 165.173 320.815,169.784 322.733,174.329 321.509 C 175.317 321.243,176.696 320.862,177.393 320.663 C 178.090 320.464,178.732 320.374,178.821 320.463 C 179.051 320.692,179.501 329.679,179.879 341.592 C 180.457 359.781,182.159 399.377,182.372 399.589 C 182.517 399.734,187.208 398.875,188.491 398.468 C 189.788 398.058,189.740 399.074,189.937 368.018 C 190.104 341.784,190.285 336.136,190.986 335.291 C 191.279 334.939,191.222 334.643,190.698 333.796 C 189.484 331.831,188.095 321.484,187.391 309.159 C 186.598 295.282,186.447 294.237,185.157 293.649 C 184.078 293.157,183.414 291.249,183.249 288.163 C 183.068 284.800,183.180 284.689,186.769 284.674 C 198.450 284.627,202.333 278.891,195.796 271.343 C 193.632 268.845,193.649 268.971,195.427 268.515 C 199.750 267.407,204.077 263.144,204.008 260.060 C 203.978 258.737,202.277 254.439,201.407 253.488 C 198.469 250.278,191.040 250.819,185.139 254.671 C 183.888 255.488,182.729 256.156,182.565 256.156 C 182.374 256.156,182.281 253.970,182.309 250.137 L 182.353 244.117 181.139 242.996 C 179.898 241.850,179.453 240.847,179.630 239.595 C 179.730 238.889,179.732 238.889,185.285 238.737 C 193.437 238.514,195.078 237.501,195.016 232.733 C 194.932 226.293,190.307 222.745,180.706 221.756 C 178.458 221.525,178.078 221.116,178.078 218.935 C 178.078 216.731,178.696 214.971,180.053 213.316 C 181.232 211.877,181.186 211.411,179.862 211.411 C 178.518 211.411,178.719 211.084,182.288 207.461 L 185.597 204.103 186.362 205.130 C 186.782 205.694,188.020 207.643,189.113 209.459 C 197.269 223.025,206.570 233.421,219.520 243.448 C 222.762 245.959,233.755 253.153,234.348 253.153 C 234.411 253.153,235.576 253.770,236.939 254.524 C 246.899 260.033,260.052 264.515,263.784 263.671 C 265.923 263.187,266.219 262.606,266.198 258.925 C 266.149 250.436,261.634 238.893,253.896 227.477 C 252.552 225.495,250.410 222.338,249.136 220.460 C 247.861 218.582,246.878 216.985,246.952 216.912 C 247.333 216.531,258.430 220.017,267.774 223.454 C 281.266 228.416,302.300 233.154,310.063 232.980 C 316.458 232.836,316.436 232.652,309.159 225.375 C 301.565 217.781,296.866 214.703,283.556 208.601 C 280.871 207.370,277.425 205.584,275.898 204.632 C 266.127 198.539,266.165 198.552,252.252 196.721 C 237.725 194.809,226.729 193.698,222.242 193.688 C 215.790 193.673,211.741 192.089,215.390 191.008 C 220.010 189.640,231.532 177.513,231.532 174.018 C 231.532 172.685,226.069 171.748,218.018 171.698 C 206.965 171.631,202.901 172.810,194.415 178.548 C 189.273 182.024,186.491 182.962,184.973 181.732 C 183.042 180.169,190.760 170.030,205.702 154.505 C 208.881 151.201,212.559 147.147,213.874 145.495 C 215.190 143.844,216.997 141.582,217.890 140.470 C 219.677 138.245,221.889 136.469,223.256 136.162 C 224.342 135.917,225.148 136.777,229.047 142.342 C 232.126 146.737,234.120 149.135,238.281 153.453 C 239.952 155.188,242.246 157.958,243.379 159.610 C 250.613 170.161,259.594 178.700,271.052 185.922 C 277.346 189.889,283.737 191.963,285.054 190.465 C 288.208 186.877,288.207 180.718,285.050 166.778 C 281.996 153.297,280.071 148.000,277.478 145.946 C 276.254 144.977,273.249 141.251,272.045 139.210 C 270.906 137.280,272.573 137.473,283.781 140.568 C 291.495 142.699,298.552 144.292,302.252 144.739 C 307.077 145.322,312.245 147.101,319.069 150.528 C 330.254 156.145,336.982 158.213,344.448 158.329 C 348.150 158.387,348.160 158.365,346.257 154.470 C 336.389 134.266,316.790 118.052,302.190 118.013 C 296.350 117.998,299.639 116.829,318.975 112.045 C 343.617 105.949,346.956 104.281,340.891 101.100 C 322.201 91.297,305.647 89.333,275.826 93.383 C 265.452 94.792,255.938 97.452,244.160 102.236 C 241.114 103.474,238.566 104.431,238.498 104.364 C 238.431 104.296,239.003 102.418,239.770 100.190 C 242.433 92.458,243.097 85.665,241.777 79.652 C 240.678 74.648,240.008 73.965,237.096 74.882 C 233.021 76.167,234.247 75.005,240.390 71.760 C 247.579 67.963,254.960 62.654,261.728 56.411 C 266.739 51.790,269.129 49.720,273.391 46.314 C 282.052 39.394,286.979 31.812,291.489 18.468 C 293.469 12.612,293.305 11.946,289.640 10.954 C 283.480 9.288,276.981 10.105,266.013 13.927 C 242.889 21.984,236.930 26.704,223.127 47.898 C 219.792 53.018,216.737 57.613,216.338 58.108 C 212.655 62.676,211.692 64.317,208.142 72.072 C 206.668 75.293,204.380 80.167,203.058 82.903 C 200.283 88.649,197.846 93.735,195.756 98.144 C 192.316 105.398,190.096 108.408,188.185 108.408 C 187.581 108.408,187.087 108.353,187.087 108.286 C 187.087 107.681,189.911 98.862,193.376 88.650 C 199.531 70.504,200.185 67.899,201.058 58.035 C 202.961 36.543,200.268 22.982,191.440 9.610 C 186.521 2.158,183.036 -0.657,180.463 0.742 M195.796 108.724 C 195.796 109.745,193.101 113.213,192.307 113.213 C 191.493 113.213,192.379 111.457,194.089 109.685 C 195.325 108.403,195.796 108.138,195.796 108.724 M181.422 117.768 C 180.503 121.088,179.926 122.554,179.905 121.622 C 179.866 119.867,181.426 114.960,181.879 115.413 C 181.963 115.497,181.758 116.557,181.422 117.768 M190.691 117.906 C 190.691 119.176,184.901 131.832,184.320 131.832 C 183.381 131.832,185.473 124.689,187.597 120.648 C 188.927 118.116,190.691 116.553,190.691 117.906 M183.494 143.078 C 183.004 146.552,182.001 151.859,181.688 152.637 C 181.220 153.800,181.340 148.641,181.844 145.904 C 183.020 139.524,184.307 137.320,183.494 143.078 M170.366 154.088 C 173.281 156.490,174.009 160.918,172.695 168.235 C 171.881 172.766,171.471 178.253,171.471 184.628 C 171.471 187.522,171.400 189.818,171.312 189.731 C 171.225 189.643,170.887 187.560,170.561 185.101 C 168.695 171.018,166.053 154.276,165.265 151.544 C 165.066 150.855,168.555 152.595,170.366 154.088 M179.437 174.174 L 178.996 175.826 179.150 173.724 C 179.413 170.128,179.712 168.825,179.804 170.871 C 179.844 171.779,179.679 173.266,179.437 174.174 M181.195 187.803 C 182.257 190.042,181.665 193.303,179.263 198.447 C 177.835 201.504,177.334 201.486,177.625 198.389 C 178.032 194.049,179.903 186.280,180.459 186.623 C 180.596 186.708,180.927 187.239,181.195 187.803 M175.286 289.135 C 175.376 289.805,175.354 290.734,175.237 291.198 L 175.024 292.042 174.449 291.333 C 173.794 290.526,173.662 288.320,174.234 287.748 C 174.742 287.240,175.094 287.705,175.286 289.135 " stroke="none" fill="#000000" fill-rule="evenodd"></path></g></svg>
